svg/system/refresh_3_fill.svg

<?xml version="1.0" encoding="UTF-8"?>
<svg width="24px" height="24px" viewBox="0 0 24 24" version="1.1" xmlns="http://www.w3.org/2000/svg" xmlns:xlink="http://www.w3.org/1999/xlink">
    <title>refresh_3_fill</title>
    <g id="Icon" stroke="none" stroke-width="1" fill="none" fill-rule="evenodd">
        <g id="System" transform="translate(-480.000000, -432.000000)" fill-rule="nonzero">
            <g id="refresh_3_fill" transform="translate(480.000000, 432.000000)">
                <path d="M24,0 L24,24 L0,24 L0,0 L24,0 Z M12.5935,23.2578 L12.5819,23.2595 L12.5109,23.295 L12.4919,23.2987 L12.4767,23.295 L12.4057,23.2595 C12.3958,23.2564 12.387,23.259 12.3821,23.2649 L12.378,23.2758 L12.3609,23.7031 L12.3659,23.7235 L12.3769,23.7357 L12.4805,23.8097 L12.4953,23.8136 L12.5071,23.8097 L12.6107,23.7357 L12.6233,23.7197 L12.6267,23.7031 L12.6096,23.2758 C12.6076,23.2657 12.601,23.2593 12.5935,23.2578 Z M12.8584,23.1453 L12.8445,23.1473 L12.6598,23.2397 L12.6499,23.2499 L12.6472,23.2611 L12.6651,23.6906 L12.6699,23.7034 L12.6784,23.7105 L12.8793,23.8032 C12.8914,23.8069 12.9022,23.803 12.9078,23.7952 L12.9118,23.7812 L12.8777,23.1665 C12.8753,23.1546 12.8674,23.147 12.8584,23.1453 Z M12.143,23.1473 C12.1332,23.1424 12.1222,23.1453 12.1156,23.1526 L12.1099,23.1665 L12.0758,23.7812 C12.0751,23.7927 12.0828,23.8019 12.0926,23.8046 L12.1083,23.8032 L12.3092,23.7105 L12.3186,23.7024 L12.3225,23.6906 L12.3404,23.2611 L12.3372,23.2485 L12.3278,23.2397 L12.143,23.1473 Z" id="MingCute"></path>
                <path d="M20,9.50002 C20.8284,9.50002 21.5,10.1716 21.5,11 C21.5,15.6944 17.6944,19.5 13,19.5 L10.6181,19.5 C11.1458,20.089 11.1266,20.9947 10.5607,21.5607 C9.97487,22.1464 9.02513,22.1464 8.43934,21.5607 L5.94473,19.066 C5.67323,18.7973 5.50387,18.4255 5.5,18.0142 L5.5,17.9858 C5.5035,17.615 5.64153,17.2763 5.86767,17.0162 L5.93934,16.9393 L5.93934,16.9393 L8.43934,14.4393 C9.02513,13.8536 9.97487,13.8536 10.5607,14.4393 C11.1266,15.0053 11.1458,15.9111 10.6181,16.5 L13,16.5 C16.0376,16.5 18.5,14.0376 18.5,11 C18.5,10.1716 19.1716,9.50002 20,9.50002 Z M15.5607,2.43934 L18.0607,4.93934 C18.6464,5.52513 18.6464,6.47487 18.0607,7.06066 L15.5607,9.56066 C14.9749,10.1464 14.0251,10.1464 13.4393,9.56066 C12.8734,8.99469 12.8542,8.08898 13.3819,7.50002 L11,7.50002 C7.96243,7.50002 5.5,9.96246 5.5,12.9999975 C5.5,13.8285 4.82843,14.4999975 4,14.4999975 C3.17157,14.4999975 2.5,13.8285 2.5,12.9999975 C2.5,8.3056 6.30558,4.50002 11,4.50002 L13.3819,4.50002 C12.8542,3.91107 12.8734,3.00532 13.4393,2.43934 C14.0251,1.85355 14.9749,1.85355 15.5607,2.43934 Z" id="形状" fill="#09244B"></path>
            </g>
        </g>
    </g>
</svg>

<svg xmlns="http://www.w3.org/2000/svg" width="24" height="24"><g fill="none" fill-rule="nonzero"><path d="M24 0v24H0V0h24ZM12.594 23.258l-.012.002-.071.035-.02.004-.014-.004-.071-.036c-.01-.003-.019 0-.024.006l-.004.01-.017.428.005.02.01.013.104.074.015.004.012-.004.104-.074.012-.016.004-.017-.017-.427c-.002-.01-.009-.017-.016-.018Zm.264-.113-.014.002-.184.093-.01.01-.003.011.018.43.005.012.008.008.201.092c.012.004.023 0 .029-.008l.004-.014-.034-.614c-.003-.012-.01-.02-.02-.022Zm-.715.002a.023.023 0 0 0-.027.006l-.006.014-.034.614c0 .012.007.02.017.024l.015-.002.201-.093.01-.008.003-.011.018-.43-.003-.012-.01-.01-.184-.092Z"/><path fill="#09244B" d="M20 9.5a1.5 1.5 0 0 1 1.5 1.5 8.5 8.5 0 0 1-8.5 8.5h-2.382a1.5 1.5 0 0 1-2.179 2.06l-2.494-2.494a1.495 1.495 0 0 1-.445-1.052v-.028c.003-.371.142-.71.368-.97l.071-.077 2.5-2.5a1.5 1.5 0 0 1 2.18 2.061H13a5.5 5.5 0 0 0 5.5-5.5A1.5 1.5 0 0 1 20 9.5Zm-4.44-7.06 2.5 2.5a1.5 1.5 0 0 1 0 2.12l-2.5 2.5a1.5 1.5 0 0 1-2.178-2.06H11A5.5 5.5 0 0 0 5.5 13a1.5 1.5 0 1 1-3 0A8.5 8.5 0 0 1 11 4.5h2.382a1.5 1.5 0 0 1 2.179-2.06Z"/></g></svg>
